X:1
T:Sed libera nos a malo
T:"Honophrius Patavinus", probably Onofrio Antenoreo (fl 1505–14)
T:Opening sentence from the Lord's prayer. Gospel of Saint Matthew, Chapter 6, verse 13
T:Sed libera nos a malo
T:Frottola
T:Copyright © 
T:Copyright © 
T:Copyright © 
T:Copyright © 
C:"Honophrius Patavinus",
C:probably Onofrio Antenoreo (fl 1505–14)
Z:Opening sentence from the Lord's prayer.
Z:Gospel of Saint Matthew, Chapter 6, verse 13
Z:Copyright ©
%%score [ 1 2 3 4 ]
L:1/8
M:2/2
K:C
V:1 treble nm="Canto" snm="S."
V:2 treble nm="Tenor" snm="A."
V:3 treble-8 transpose=-12 nm="Altus" snm="T."
V:4 bass nm="Bassus" snm="B."
V:1
 G4 G2 GG | G2 A2 G4 | ^F4 A2 A2 | ^F2 G3 F E2- | E2 D2 G4 | ^F4 d2 d2 | B2 c4 BA | G2 A4 G2 | %8
w: Sed li- ber- a|nos a ma-|lo. Pa- ce|or- mai non più|_ do- lo-|re. Se io|te ho da- to|l'al- ma el|
w: ||||||||
 A4 G4 | c3 B A2 G2 | F2 G2 E2 G2- | G2 ^FE F4 | G4 G4 | G4 G2 GG | G2 A2 G4 | ^F4 A2 A2 | %16
w: co- re.|El fo- co mai|non cal- lo. _|_ _ _ _||Sed li- be- ra|nos a ma-|lo. Pa- ce|
w: ||||||||
 ^F2 G3 F E2- | E2 D2 G4 | ^F4 d2 d2 | B2 c3 BAG | F2 D3 EFG | A2 B4 A2- | A2 G2 A2 G2- | %23
w: or mai non più|_ do- lo-|re. Pa- ce|or- mai non _ _|più do- * * *|* lo- *||
w: |||||||
 G2 ^FE F4 | G16 |: G4 A4 | A4 B2 c2- | c2 B2 A4 | G4 d4 | B4 A4 | B2 c4 B2 | c4 c4 :: B4 B4 | %33
w: |re.|Li- be-|ra me di|_ ca- te-|na Ch'io|te\_a- do-|ro per dea\_in|ter- ra.|Li- be-|
w: ||Li- be-|ra me di|_ tan- ta|pe- na\_e|dal duol|che mi sot-|ter- ra.||
 c4 B2 A2- | A2 G2 ^F4 | ^F4 | G2 G2 E2 A2- | A2 G4 ^F2 | G4 A4 | B2 d2 c3 B | A GFE DEFG | %41
w: ra mi\_e non|_ più guer-|ra.|Ch'io son re- so|_ sen- za|fal- lo,|ch'io son re- so|sen- za _ _ _ _ _ _|
w: ||||||||
 EF G4 ^F2 | G4 G4 :| G4 G2 GG | G2 A2 G4 | ^F4 A2 A2 | ^F2 G3 F E2- | E2 D2 G4 | ^F4 d2 d2 | %49
w: _ _ _ _|fal- lo.|Sed li- be- ra|me a ma-|lo, sed li-|be- ra _ me|_ a ma-|lo, sed li-|
w: ||||||||
 B2 c3 BAG | ^F2 D3 EFG!fine! | A2 B4 A2- | A2 G2 A2 G2- | G2 ^FE F4 | G16 |] %55
w: be- ra _ _ _|me me _ _ _|a ma- lo,|_ li- be- ra|_ me a ma-|lo.|
w: ||||||
V:2
 B,2 C4 B,A, | B,2 C2 B,A,B,C | D4 C2 C2 | (3:2:2D4 C2 B,4 | C2 D4 C2 | D4 F3 E | D2 CB, A,2 D2- | %7
w: Sed li- ber- a|nos a ma- * * *|lo. Pa- ce|or- mai non|più do- lo-|re. Se io|te ho _ da- to|
w: |||||||
 DC B,A, B,4 | z2 A,3 B,CD | E3 D C2 C2 | D2 B,2 C3 B, | A,2 G,2 A,4 | E4 D4 | B,2 C4 B,A, | %14
w: _ l'al- ma _ el|co- re. _ _|El fo- co mai|non cal- lo. _|_ _ _||Sed li- be- ra|
w: |||||||
 B,2 C2 B,A,B,C | D4 C2 C2 | D3 C B,4 | C2 D4 C2 | D4 F2 F2 | G3 FED CB, | A,4 B,4 | C2 D3 C B,A, | %22
w: nos a ma- * * *|lo. Pa- ce|or mai *|più do- lo-|re. Pa- ce|or- mai _ _ non _|più do-|* lo- * * *|
w: ||||||||
 B,4 C3 B, | A,4 A,4 | G,16 |: z2 G4 FE | F4 G2 FE | D2 G4 F2 | G4 F3 E | D2 E2 C2 F2- | FE AG D4 | %31
w: ||re.|Li- be- *|ra me di _|_ ca- te-|na Ch'io te\_a-|do- * * ro|* per dea * in|
w: |||Li- be- *|ra me di _|_ tan- ta|pe- na e|dal _ _ duol|_ che mi _ sot-|
 D2 E2 A2 z2 :: D2 G3 FED | E4 D2 C2 | B,4 A,4 | A,4 | B,2 B,2 C4 | D2 G,2 A,4 | G,2 G4 F2 | %39
w: ter- * ra.|Li- be- * * *|ra mi\_e non|più guer-|ra.|Ch'io son re-|so sen- za|fal- lo, ch'io|
w: ter- * ra.||||||||
 G3 FED E2 | FEDC B,2 C2- | C B,A,G, A,4 | G,8 :| B,2 C4 B,A, | B,2 C2 B,A,B,C | D4 C2 C2 | %46
w: son _ _ _ re-|* * * * so sen-|* za _ _ fa-|lo.|Sed li- be- ra|me a ma- * * *|lo, sed li-|
w: |||||||
 D3 C B,4 | C2 D4 C2 | D4 F2 F2 | G3 F ED CB, | A,4 B,4 | C2 D3 CB,A, | B,4 C3 B, | A,8 | G,16 |] %55
w: be- * ra|me a ma-|lo, sed li-|be- ra me _ a _|ma- lo,|sed li- be- * *|ra me a|ma-|lo.|
w: |||||||||
V:3
 d2 e4 dc | d2 f2 e2 d2 | a4 A2 A2 | A4 G4 | A2 A4 G2 | A4 a2 a2 | g2 e2 f2 d2 | e4 e4 | %8
w: Sed li- ber- a|nos a ma- lo.|Pa- ce or-|mai non|più do- lo-|re. Se *|te ho da- to|l'al- ma\_el|
w: ||||||||
 c3 d e2 f2 | g4 z2 G2 | A2 G4 G2 | d4 d4 | G2 c4 Bc | d2 e4 dc | d2 f2 e2 d2 | a4 A2 A2 | A4 G4 | %17
w: co- * * *|re. mai|non cal- lo.|_ _||Sed li- be- ra|nos a ma- *|lo. Pa- ce\_or|mai *|
w: |||||||||
 A2 A4 G2 | A2 a3 g fe | d4 c4 | f4 g2 de | f3 e d4 | e4 e4 | d4 d4 | B16 |: d4 d4 | d4 d2 g2- | %27
w: più do- lo-|re. Pa- ce * *|or- non|_ più do- *|* * lo-|||re.|Li- be-|ra me di|
w: ||||||||Li- be-|ra me di|
 g2 d2 d4 | d4 a4 | a2 z2 f2 c2 | g4 g4 | e4 e4 :: g3 fed g2- | g2 g2 g2 fe | d4 d4 | d4 | %36
w: _ ca- te-|na Ch'io|te\_a- do- ro|per dea\_in|ter- ra.|Li- be- * * ra|* mi\_e non _ _|più guer-|ra.|
w: _ tan- ta|pe- na\_e|dal duol che|mi sot-|ter- ra.|||||
 d2 d2 g2 f2- | fedc d4 | B4 d4 | d2 g3 fed | c4 z2 G2- | GABc d4 | B4 B4 :| d2 e4 dc | %44
w: Ch'io son re- so|_ sen- za fal- lo,|se- za|fal- * * * *|lo, sen-|* * * * za|fal- lo.|Sed * li- ra|
w: ||||||||
 d2 f2 e2 d2 | a4 A2 A2 | A4 G4 | A2 A4 G2 | A2 a3 gfe | d4 c4 | ^f4 g2 de | f3 e d4 | e4 e4 | %53
w: me a ma- *|lo, sed li-|be- ra|me a ma-|lo, sed li be- ra|me a|ma- lo, sed _|li- * be-|ra me|
w: |||||||||
 d4 d4 | B16 |] %55
w: a ma-|lo.|
w: ||
V:4
 G,4 C,2 C,C, | G,2 F,2 G,4 | D,4 A,,2 A,,2 | D,4 E,4 | A,,2 D,2 E,4 | D,4 D,2 D,2 | G,2 A,2 F,4 | %7
w: Sed li- ber- a|nos a ma-|Pa- ce or-|mai non|più do- lo-|re. Se *|te ho da-|
w: |||||||
 E,4 E,4 | F,4 E,2 D,2 | C,4 F,2 E,2 | D,2 E,2 C,4 | D,4 D,4 | C,4 G,4 | G,4 C,2 C,C, | %14
w: to l'al-|ma\_el co- re.\_El|foc- co mai|non cal- *|||Sed li- be- ra|
w: |||||||
 G,2 F,2 G,4 | D,4 A,,2 A,,2 | D,4 E,4 | A,,2 D,2 E,4 | D,4 D,2 D,2 | G,4 C,4 | D,4 G,4 | %21
w: nos a ma-|lo. Pa- ce\_or-|mai non|più do- lo-|re. Pa- ce|or- mai|non più|
w: |||||||
 F,4 G,2 F,2 | E,4 A,,4 | D,4 D,4 | G,,16 |: G,4 D,4 | D,4 z4 | G,4 D,4 | G,4 D,4 | G,2 E,2 F,4 | %30
w: do- lo- *|||re.|Li- be-|ra|di ca-|te- na|ch'io te\_a- do|
w: ||||Li be-|ra|tan- ta|pe- na\_e|dal duol che|
 G,4 G,4 | C,4 C,4 :: G,4 G,4 | C,4 G,2 A,F, | G,4 D,4 | D,4 | G,2 G,2 C,2 F,2 | D,2 E,2 D,4 | %38
w: ro in|ter- ra.|Li- be-|ra mi\_e non _|più guer-|ra.|Ch'io son re- so|sen- za fal-|
w: mi sot-|ter- ra.|||||||
 E,4 D,4 | G,4 C,4 | F,4 G,2 C,2 | E,4 D,4 | G,,4 G,,4 :| G,4 C,2 C,C, | G,2 F,2 G,4 | %45
w: lo, ch'io|son re-|so sen- za|_ _|fal- lo.|Sed li- be- ra|me a ma-|
w: |||||||
 D,4 A,,2 A,,2 | D,4 E,4 | A,,2 D,2 E,4 | D,4 D,2 D,2 | G,4 C,4 | D,4 G,4 | F,4 G,2 F,2 | %52
w: lo, sed li-|be- ra|me a ma-|lo, sed li-|be- ra|li- be-|ra me _|
w: |||||||
 E,4 A,,4 | D,4 D,4 | G,,16 |] %55
w: _ _|a ma-|lo.|
w: |||

